X: 506
%
U:~=!turn!
T: Nighean dubh nan Geala chas
T: My Lovely Black Maiden
C:
O:Scotland
B:Keith Norman MacDonald : "The Skye collection of the best reels & strathspeys extant" : 1887
Z:Ralph Palmer
R:Reel
M:C|
L:1/8
K:A dorian
e | {/f}g>e{/^c}d>g BB{/F}G>B | {/^c}d2 ed TB2 (Bd) | {/f}g>e{/^c}dg BB{/F}G>B | {/^c}d2 (e>d) T	BAA ::
B | {/^c}dGdB {/c}dGdB | {/^c}dGdB =ceAe | {/^c}dGdB {/c}de{/f}ga | ge{/^c}dB TBAA :|


